X: 1
T: Bourrée D'Absinthe
M: 2/4
L: 1/8
K: Emin
|: "Em"G2 F2 | G E2 B | "C"c>B AG | "D"B>A GF |
"Em"G2 F2 | G E2 B | "D"A>G FG | "Em"E4 :|
|: "Em"e2 ^de | "G"B2 ^AB | "C"c>B AG | "D"B>A GF |
"Em"e2 ^de | "G"B2 ^AB | "C"c>B AG | "D"F4 :|
